X:756
T:Marry Me Now
T:I Wish You Would Marry Me Now
S:Kerr's Merry Melodies
N:Very slightly changed to the way I play it
Z:Nigel Gatherer
M:4/4
L:1/8
K:Am
G  | EA A/A/A c2 ce | dcBA GABG | AE E/E/E c2 ce | dBgB A3   :|
g  | agea     geae  | gedg BGdB | agea     geae  | gegB A2 
Ag | agea     geae  | gedg BGdB | cAdB     edce  | dBgB A3   :|
<end>
<start>
